src/assets/images/branding/favicons/favicon.svg

<svg clip-rule="evenodd" fill-rule="evenodd" stroke-linejoin="round" stroke-miterlimit="2" viewBox="0 0 1024 1024" xmlns="http://www.w3.org/2000/svg"><path d="m77.921 183.072 4.226 5.629 4.226 3.754 1.88-1.406v-12.673l.936-9.858 2.815-5.166 4.693.469 6.104 4.224h10.326l1.409-3.284s1.88-4.696-1.877-5.632c-3.758-.936-6.103-2.345-9.39-2.815-3.285-.473-7.978-1.406-7.978-1.406l-3.289-6.574.473-10.331h-14.554l.471 4.696v6.574l-2.812 3.754-8.451.936-8.923 3.757-5.159 4.226v5.163l9.854 1.878 4.693-5.166 5.164-2.814 5.163 6.571zm-41.775-4.229h-4.696l-3.755-3.751-.938-7.514 9.389 1.879zm-14.083 13.145-5.632-2.817 1.88-6.572 5.631-.939.939 6.575zm168.517-170.865v-6.102l5.166.938 1.405 4.693 4.693 3.757.939 5.632-2.346 4.227-5.163-.941-5.165-4.695zm-90.126 186.356-9.388-2.348-6.57-1.409-5.165-4.223-4.696-5.635-6.1-2.815-1.878-7.51v-6.099l-6.57-1.412-5.634 3.754-7.983-1.879-3.752-5.162-.941-7.038 1.409-9.389 5.632-5.162 7.041-3.757h9.388l.473-3.287 5.163-3.281.938-3.294-10.327-.469-1.88-2.813 2.818-4.225h24.878s11.735.939 13.145.939c1.406 0 3.754-2.35 3.754-2.35l1.412-4.221-2.819-.943h-24.41l-8.918-.466v-5.634l2.813-.468 6.104-.47 10.327.938 12.676-.468 4.226-1.406 1.406-5.638-5.632-.939h-20.184l-10.328.471-1.407-4.696 2.813-3.281h18.779l15.49-.47 8.452 3.751 1.407 12.208 3.286 7.041 5.158 4.226 4.696 4.689-3.284 4.225-5.164-1.874-6.572-2.818-1.409 7.512-5.635 1.409-7.508-.466 1.41 6.101 8.448 1.406 7.982.939 7.035 3.284 2.349 4.224 3.757-.467.469-8.919.94-9.862 4.692-9.855 4.227-14.082 4.692-12.672 6.103-8.922 7.979-7.507 7.044-6.573.934-3.755-3.284-.941h-14.549l-6.104-1.406-5.633-3.289-3.756-5.634.472-15.018-.944-19.715 1.412-9.387 7.041-3.755 4.229 2.346.933 7.511-.469 10.796-.464 26.287 5.16 3.286 5.632-1.878h8.453l6.101.47v-4.223l-.469-32.389v-6.103l4.227-9.859h7.037l2.349 4.225v13.143l-.939 17.371.939 13.144 2.811 4.222h7.987l8.446.47 5.636-2.814 2.344-6.102 2.818-6.105.936-14.082v-8.918l3.287-4.694 6.103-.471.467 17.839.472 20.184-.472 9.389-10.326 3.286-11.729 2.35-16.431-.942 2.345 6.575 8.45 6.1 6.571 5.633 6.098 5.166.474 5.164 4.223 7.043 1.879 8.914 3.284 8.919 2.348 11.263 2.815 2.351 1.884 9.389-.473 14.548c8.446.473 6.102-2.814 6.102-2.814v-6.099l-1.406-9.861v-8.452l.938-4.694-1.409-7.042.939-8.915-4.69-5.632-2.351-3.286v-5.632l3.757-4.226.473-7.981 2.344-3.756.468-32.387s-.468-34.733-.468-36.615c0-1.878-4.223-7.507-4.223-7.507l-2.351-3.289s-3.284-3.286-6.103-4.696c-2.816-1.402-14.082 0-14.082 0l-16.426.471s-4.227 3.287-6.105 2.349c-1.875-.941-2.348-3.757-2.348-3.757l-14.548.47h-26.758c-3.757 0-9.859 3.287-9.859 3.287l-7.159 1.054-9.387-.821-5.397.115-1.527 2.936 2.35 3.755 4.224 3.287 7.508 4.226-.465 6.568-4.693.468v4.694l1.407 3.286 6.569 5.635 4.693 4.223 1.412 6.575-7.982-.471s-5.635-3.754-6.572-5.166c-.939-1.409-3.284-4.223-3.284-4.223l-4.226-6.573h-6.104l-1.877 4.694 4.695 5.635 5.161 4.223 2.813 3.755-2.343 3.287s-4.226-.473-6.103-.473c-1.878 0-4.225-6.1-4.225-6.1s-4.224-6.102-4.693-7.512c-.469-1.409-5.633-2.346-5.633-2.346l-6.572 1.88-.937 4.223 3.755 4.694 1.875 6.102v9.389h6.572l10.796 1.406 15.959-.466 1.881 3.286-2.819 3.284-7.977 1.41-9.857-1.41-1.88 3.287 1.88 5.629v5.166h6.57l12.674.469-.472 6.105h-44.123l-7.043-1.407 1.409-6.106 9.391.939 10.794-.939.938-3.756.94-7.509-9.859.939-13.143-1.88.938-6.571h5.634l6.101-2.345v-4.694s-1.407-3.757-1.407-5.166c0-1.406-5.159-3.286-5.159-3.286l-5.167-7.041.47-5.632.939-6.102-4.227-.941h-9.389l-16.428.47h-14.081l-4.224 3.287 2.347 4.223h6.102l3.286-.938 12.676-.939s15.957.47 17.837.939c1.88.471-1.409 5.632-1.409 5.632l-6.104 1.412-.466 7.509-.471 7.98-.938 6.57-4.226.47-9.389.468h-15.021l-3.284 2.351-1.41 7.039 3.289 2.349h20.651l8.919.933-.469 7.046-6.572.937-.467 5.633-1.41 6.104-1.408 6.102-5.161.938-11.739-.468-7.979 1.404 1.408 11.737 4.227.471 15.488-.471 11.734-.936-.466 8.449h-6.576l-.938 7.509-1.407 5.168-5.632 5.156-8.45 2.817-10.327 4.227-3.757.936-1.406 12.676-3.757 5.163-2.818 10.325-2.348 4.702-.938 10.791 4.694 2.345 6.571-.466 3.289 2.817-2.818 4.69h4.693l3.757-2.345 3.284 2.818 2.348 2.345 7.98-.47 4.225-2.814 6.1.466 1.412 4.224 15.017.945 23.941.936 18.777-.47-1.408-2.817zm108.901-14.082-4.223 5.629-3.754 1.412-6.574-2.818-.467-5.165 4.224-3.754 4.224-1.409 6.57-.936zm-18.302-49.289-5.635-6.572 1.878-5.635 3.757.938 2.812 7.515zm-29.575 10.328-7.041 5.162 1.878 4.223 2.815 5.636-4.225 3.284-4.692-3.754-7.041-7.041 1.406-7.51 2.814-3.284 3.287-1.879 4.226-6.101 6.572-.473.473 5.635zm72.287 38.019v-10.795l.473-7.977-2.817-.473h-2.817l-1.406 5.166.939 9.389-1.412 15.957-3.75 1.409v-8.45l-.946-11.264-4.689-9.389-.472-13.612v-10.328l-1.88-14.085s-5.632-11.733-6.101-13.144c-.467-1.408-2.818-11.733-2.818-11.733l-7.034-10.794-6.577-9.859-9.387-7.509v10.324l-1.875 23.002v45.062l2.346 22.531-3.285 10.332-3.284 4.696-5.635-4.23-1.412-11.264.473-20.187v-14.551l1.409-7.041-.943-20.187.943-15.487.469-22.533-4.695 5.633-10.325 11.268-4.696 11.732-5.629 11.267-4.229 15.496-3.755 10.325v8.913l1.879 9.392-1.408 15.49v15.964h-10.325v-4.23l.936-14.554-.47-12.201-5.162-.469-5.166 6.101-6.102 1.882h-7.507l-7.043.936-.942 4.696-.938 8.447 1.411 6.101 6.571 2.345 7.509 3.288 4.229 1.878h6.1l10.325 1.875 4.227 3.757h6.571l13.615.467h18.305l13.616.472 16.426.473 7.041-2.351 9.386-.936 11.737.466.937-6.571zm-159.599-176.027.941 3.287-.941 6.571 3.286 2.345 4.224 1.409 6.577-1.409 7.979-2.345 5.163-2.818 2.346-4.693-2.346-3.287-2.35-4.693-2.349-2.818-3.753-3.754s-21.123-.941-23.469.47l-1.41 2.813 1.878 3.757zm-48.817 82.146 13.145-.471 2.345-5.631s-.937-5.162-2.345-5.162c-1.41 0-8.45.939-8.45.939l-6.571 1.406-1.409 4.694-1.409 4.225zm10.325-40.37s3.289-1.875 6.571-1.407c3.286.47 5.637 1.407 5.637 1.407h1.407l1.877-3.755-.469-5.161-8.452-1.409-11.264.47-8.449-1.41-1.879 10.799 2.818.936zm-28.632 96.232 2.818-9.389.937-8.918 2.821-13.144-.944-11.264 1.41-12.205-.466-11.266 1.871-7.512s-.936-4.693-1.405-6.572c-.466-1.878-1.41-4.225-1.41-4.225l2.35-8.918-.47-8.45-.936-6.103s0-6.571.466-8.919c.47-2.346 2.812-6.103 2.812-6.103l1.878-4.693 7.515-3.286 9.384-.468h10.328l7.511-.468 8.45.468 2.348-4.225.468-5.632-2.229-3.052s-1.641-2.346-1.759-2.698c-.118-.353-.703-3.169-.703-3.169h-13.618s-12.671.47-16.896.47-10.798.466-12.204 1.407c-1.409.939-4.694 3.757-7.044 4.225-2.346.47-5.158 3.757-6.568 4.695-1.407.936-2.818 4.225-2.818 4.225l-.469 75.104s2.815 3.287 2.815 5.166c0 1.872 1.408 49.284-.469 51.163-1.878 1.878-2.817 23.467-2.817 23.467l4.223-5.628 1.409-6.102zm10.799-14.552 5.159.943 6.572-2.352 6.101-.472.471-4.693-1.409-3.754h-8.446l-5.636-.469-2.812 4.696z" fill="#e7050f" fill-rule="nonzero" transform="matrix(4.34585 0 0 4.34585 2.00385 48.9129)"/></svg>

<?xml version="1.0" encoding="UTF-8" standalone="no"?>
<!DOCTYPE svg PUBLIC "-//W3C//DTD SVG 1.1//EN" "http://www.w3.org/Graphics/SVG/1.1/DTD/svg11.dtd">
<svg width="100%" height="100%" viewBox="0 0 1024 1024" version="1.1" xmlns="http://www.w3.org/2000/svg" xmlns:xlink="http://www.w3.org/1999/xlink" xml:space="preserve" xmlns:serif="http://www.serif.com/" style="fill-rule:evenodd;clip-rule:evenodd;stroke-linejoin:round;stroke-miterlimit:2;">
    <g transform="matrix(4.34585,0,0,4.34585,2.00385,48.9129)">
        <path d="M77.921,183.072L82.147,188.701L86.373,192.455L88.253,191.049L88.253,178.376L89.189,168.518L92.004,163.352L96.697,163.821L102.801,168.045L113.127,168.045L114.536,164.761C114.536,164.761 116.416,160.065 112.659,159.129C108.901,158.193 106.556,156.784 103.269,156.314C99.984,155.841 95.291,154.908 95.291,154.908L92.002,148.334L92.475,138.003L77.921,138.003L78.392,142.699L78.392,149.273L75.58,153.027L67.129,153.963L58.206,157.72L53.047,161.946L53.047,167.109L62.901,168.987L67.594,163.821L72.758,161.007L77.921,167.578L77.921,183.072ZM36.146,178.843L31.45,178.843L27.695,175.092L26.757,167.578L36.146,169.457L36.146,178.843ZM22.063,191.988L16.431,189.171L18.311,182.599L23.942,181.66L24.881,188.235L22.063,191.988ZM190.58,21.123L190.58,15.021L195.746,15.959L197.151,20.652L201.844,24.409L202.783,30.041L200.437,34.268L195.274,33.327L190.109,28.632L190.58,21.123ZM100.454,207.479L91.066,205.131L84.496,203.722L79.331,199.499L74.635,193.864L68.535,191.049L66.657,183.539L66.657,177.44L60.087,176.028L54.453,179.782L46.47,177.903L42.718,172.741L41.777,165.703L43.186,156.314L48.818,151.152L55.859,147.395L65.247,147.395L65.72,144.108L70.883,140.827L71.821,137.533L61.494,137.064L59.614,134.251L62.432,130.026L87.31,130.026C87.31,130.026 99.045,130.965 100.455,130.965C101.861,130.965 104.209,128.615 104.209,128.615L105.621,124.394L102.802,123.451L78.392,123.451L69.474,122.985L69.474,117.351L72.287,116.883L78.391,116.413L88.718,117.351L101.394,116.883L105.62,115.477L107.026,109.839L101.394,108.9L81.21,108.9L70.882,109.371L69.475,104.675L72.288,101.394L91.067,101.394L106.557,100.924L115.009,104.675L116.416,116.883L119.702,123.924L124.86,128.15L129.556,132.839L126.272,137.064L121.108,135.19L114.536,132.372L113.127,139.884L107.492,141.293L99.984,140.827L101.394,146.928L109.842,148.334L117.824,149.273L124.859,152.557L127.208,156.781L130.965,156.314L131.434,147.395L132.374,137.533L137.066,127.678L141.293,113.596L145.985,100.924L152.088,92.002L160.067,84.495L167.111,77.922L168.045,74.167L164.761,73.226L150.212,73.226L144.108,71.82L138.475,68.531L134.719,62.897L135.191,47.879L134.247,28.164L135.659,18.777L142.7,15.022L146.929,17.368L147.862,24.879L147.393,35.675L146.929,61.962L152.089,65.248L157.721,63.37L166.174,63.37L172.275,63.84L172.275,59.617L171.806,27.228L171.806,21.125L176.033,11.266L183.07,11.266L185.419,15.491L185.419,28.634L184.48,46.005L185.419,59.149L188.23,63.371L196.217,63.371L204.663,63.841L210.299,61.027L212.643,54.925L215.461,48.82L216.397,34.738L216.397,25.82L219.684,21.126L225.787,20.655L226.254,38.494L226.726,58.678L226.254,68.067L215.928,71.353L204.199,73.703L187.768,72.761L190.113,79.336L198.563,85.436L205.134,91.069L211.232,96.235L211.706,101.399L215.929,108.442L217.808,117.356L221.092,126.275L223.44,137.538L226.255,139.889L228.139,149.278L227.666,163.826C236.112,164.299 233.768,161.012 233.768,161.012L233.768,154.913L232.362,145.052L232.362,136.6L233.3,131.906L231.891,124.864L232.83,115.949L228.14,110.317L225.789,107.031L225.789,101.399L229.546,97.173L230.019,89.192L232.363,85.436L232.831,53.049C232.831,53.049 232.363,18.316 232.363,16.434C232.363,14.556 228.14,8.927 228.14,8.927L225.789,5.638C225.789,5.638 222.505,2.352 219.686,0.942C216.87,-0.46 205.604,0.942 205.604,0.942L189.178,1.413C189.178,1.413 184.951,4.7 183.073,3.762C181.198,2.821 180.725,0.005 180.725,0.005L166.177,0.475L139.419,0.475C135.662,0.475 129.56,3.762 129.56,3.762L122.401,4.816L113.014,3.995L107.617,4.11L106.09,7.046L108.44,10.801L112.664,14.088L120.172,18.314L119.707,24.882L115.014,25.35L115.014,30.044L116.421,33.33L122.99,38.965L127.683,43.188L129.095,49.763L121.113,49.292C121.113,49.292 115.478,45.538 114.541,44.126C113.602,42.717 111.257,39.903 111.257,39.903L107.031,33.33L100.927,33.33L99.05,38.024L103.745,43.659L108.906,47.882L111.719,51.637L109.376,54.924C109.376,54.924 105.15,54.451 103.273,54.451C101.395,54.451 99.048,48.351 99.048,48.351C99.048,48.351 94.824,42.249 94.355,40.839C93.886,39.43 88.722,38.493 88.722,38.493L82.15,40.373L81.213,44.596L84.968,49.29L86.843,55.392L86.843,64.781L93.415,64.781L104.211,66.187L120.17,65.721L122.051,69.007L119.232,72.291L111.255,73.701L101.398,72.291L99.518,75.578L101.398,81.207L101.398,86.373L107.968,86.373L120.642,86.842L120.17,92.947L76.047,92.947L69.004,91.54L70.413,85.434L79.804,86.373L90.598,85.434L91.536,81.678L92.476,74.169L82.617,75.108L69.474,73.228L70.412,66.657L76.046,66.657L82.147,64.312L82.147,59.618C82.147,59.618 80.74,55.861 80.74,54.452C80.74,53.046 75.581,51.166 75.581,51.166L70.414,44.125L70.884,38.493L71.823,32.391L67.596,31.45L58.207,31.45L41.779,31.92L27.698,31.92L23.474,35.207L25.821,39.43L31.923,39.43L35.209,38.492L47.885,37.553C47.885,37.553 63.842,38.023 65.722,38.492C67.602,38.963 64.313,44.124 64.313,44.124L58.209,45.536L57.743,53.045L57.272,61.025L56.334,67.595L52.108,68.065L42.719,68.533L27.698,68.533L24.414,70.884L23.004,77.923L26.293,80.272L46.944,80.272L55.863,81.205L55.394,88.251L48.822,89.188L48.355,94.821L46.945,100.925L45.537,107.027L40.376,107.965L28.637,107.497L20.658,108.901L22.066,120.638L26.293,121.109L41.781,120.638L53.515,119.702L53.049,128.151L46.473,128.151L45.535,135.66L44.128,140.828L38.496,145.984L30.046,148.801L19.719,153.028L15.962,153.964L14.556,166.64L10.799,171.803L7.981,182.128L5.633,186.83L4.695,197.621L9.389,199.966L15.96,199.5L19.249,202.317L16.431,207.007L21.124,207.007L24.881,204.662L28.165,207.48L30.513,209.825L38.493,209.355L42.718,206.541L48.818,207.007L50.23,211.231L65.247,212.176L89.188,213.112L107.965,212.642L106.557,209.825L100.454,207.479ZM209.355,193.397L205.132,199.026L201.378,200.438L194.804,197.62L194.337,192.455L198.561,188.701L202.785,187.292L209.355,186.356L209.355,193.397ZM191.053,144.108L185.418,137.536L187.296,131.901L191.053,132.839L193.865,140.354L191.053,144.108ZM161.478,154.436L154.437,159.598L156.315,163.821L159.13,169.457L154.905,172.741L150.213,168.987L143.172,161.946L144.578,154.436L147.392,151.152L150.679,149.273L154.905,143.172L161.477,142.699L161.95,148.334L161.478,154.436ZM233.765,192.455L233.765,181.66L234.238,173.683L231.421,173.21L228.604,173.21L227.198,178.376L228.137,187.765L226.725,203.722L222.975,205.131L222.975,196.681L222.029,185.417L217.34,176.028L216.868,162.416L216.868,152.088L214.988,138.003C214.988,138.003 209.356,126.27 208.887,124.859C208.42,123.451 206.069,113.126 206.069,113.126L199.035,102.332L192.458,92.473L183.071,84.964L183.071,95.288L181.196,118.29L181.196,163.352L183.542,185.883L180.257,196.215L176.973,200.911L171.338,196.681L169.926,185.417L170.399,165.23L170.399,150.679L171.808,143.638L170.865,123.451L171.808,107.964L172.277,85.431L167.582,91.064L157.257,102.332L152.561,114.064L146.932,125.331L142.703,140.827L138.948,151.152L138.948,160.065L140.827,169.457L139.419,184.947L139.419,200.911L129.094,200.911L129.094,196.681L130.03,182.127L129.56,169.926L124.398,169.457L119.232,175.558L113.13,177.44L105.623,177.44L98.58,178.376L97.638,183.072L96.7,191.519L98.111,197.62L104.682,199.965L112.191,203.253L116.42,205.131L122.52,205.131L132.845,207.006L137.072,210.763L143.643,210.763L157.258,211.23L175.563,211.23L189.179,211.702L205.605,212.175L212.646,209.824L222.032,208.888L233.769,209.354L234.706,202.783L233.765,192.455ZM74.166,16.428L75.107,19.715L74.166,26.286L77.452,28.631L81.676,30.04L88.253,28.631L96.232,26.286L101.395,23.468L103.741,18.775L101.395,15.488L99.045,10.795L96.696,7.977L92.943,4.223C92.943,4.223 71.82,3.282 69.474,4.693L68.064,7.506L69.942,11.263L74.166,16.428ZM25.349,98.574L38.494,98.103L40.839,92.472C40.839,92.472 39.902,87.31 38.494,87.31C37.084,87.31 30.044,88.249 30.044,88.249L23.473,89.655L22.064,94.349L20.655,98.574L25.349,98.574ZM35.674,58.204C35.674,58.204 38.963,56.329 42.245,56.797C45.531,57.267 47.882,58.204 47.882,58.204L49.289,58.204L51.166,54.449L50.697,49.288L42.245,47.879L30.981,48.349L22.532,46.939L20.653,57.738L23.471,58.674L35.674,58.204ZM7.042,154.436L9.86,145.047L10.797,136.129L13.618,122.985L12.674,111.721L14.084,99.516L13.618,88.25L15.489,80.738C15.489,80.738 14.553,76.045 14.084,74.166C13.618,72.288 12.674,69.941 12.674,69.941L15.024,61.023L14.554,52.573L13.618,46.47C13.618,46.47 13.618,39.899 14.084,37.551C14.554,35.205 16.896,31.448 16.896,31.448L18.774,26.755L26.289,23.469L35.673,23.001L46.001,23.001L53.512,22.533L61.962,23.001L64.31,18.776L64.778,13.144L62.549,10.092C62.549,10.092 60.908,7.746 60.79,7.394C60.672,7.041 60.087,4.225 60.087,4.225L46.469,4.225C46.469,4.225 33.798,4.695 29.573,4.695C25.348,4.695 18.775,5.161 17.369,6.102C15.96,7.041 12.675,9.859 10.325,10.327C7.979,10.797 5.167,14.084 3.757,15.022C2.35,15.958 0.939,19.247 0.939,19.247L0.47,94.351C0.47,94.351 3.285,97.638 3.285,99.517C3.285,101.389 4.693,148.801 2.816,150.68C0.938,152.558 -0.001,174.147 -0.001,174.147L4.222,168.519L5.631,162.417L7.042,154.436ZM17.841,139.884L23,140.827L29.572,138.475L35.673,138.003L36.144,133.31L34.735,129.556L26.289,129.556L20.653,129.087L17.841,133.783L17.841,139.884Z" style="fill:rgb(231,5,15);fill-rule:nonzero;"/>
    </g>
</svg>
